packages/ffe-icons/icons/open/400/sm/segment.svg

<svg xmlns="http://www.w3.org/2000/svg" height="20" viewBox="0 -960 960 960" width="20"><path d="M420.289-240Q405-240 394.5-250.289q-10.5-10.29-10.5-25.5Q384-291 394.342-301.5q10.343-10.5 25.632-10.5h359.737Q795-312 805.5-301.711q10.5 10.29 10.5 25.5Q816-261 805.658-250.5 795.315-240 780.026-240H420.289Zm0-204Q405-444 394.5-454.289q-10.5-10.29-10.5-25.5Q384-495 394.342-505.5q10.343-10.5 25.632-10.5h359.737Q795-516 805.5-505.711q10.5 10.29 10.5 25.5Q816-465 805.658-454.5 795.315-444 780.026-444H420.289ZM180-648q-15.3 0-25.65-10.289-10.35-10.29-10.35-25.5Q144-699 154.35-709.5 164.7-720 180-720h600q15.3 0 25.65 10.289 10.35 10.29 10.35 25.5Q816-669 805.65-658.5 795.3-648 780-648H180Z"/></svg>

<svg xmlns="http://www.w3.org/2000/svg" height="20" viewBox="0 -960 960 960" width="20"><path d="M420.29-240q-15.29 0-25.79-10.29t-10.5-25.5q0-15.21 10.34-25.71t25.63-10.5h359.74q15.29 0 25.79 10.29t10.5 25.5q0 15.21-10.34 25.71T780.03-240H420.29Zm0-204q-15.29 0-25.79-10.29t-10.5-25.5q0-15.21 10.34-25.71t25.63-10.5h359.74q15.29 0 25.79 10.29t10.5 25.5q0 15.21-10.34 25.71T780.03-444H420.29ZM180-648q-15.3 0-25.65-10.29Q144-668.58 144-683.79t10.35-25.71Q164.7-720 180-720h600q15.3 0 25.65 10.29Q816-699.42 816-684.21t-10.35 25.71Q795.3-648 780-648H180Z"/></svg>
